X:1
T:Ornaments
T:Table of J.S. Bach's Ornaments
T:Edited by Franklin Taylor (1843–1919)
T:Public Domain
C:JS Bach
Z:Public Domain
%%score { ( 1 3 ) | ( 2 4 5 ) }
L:1/8
Q:1/4=60
M:none
K:C
V:1 treble nm="Piano" snm="Pno."
V:3 treble 
V:2 treble 
V:4 treble 
V:5 treble 
V:1
"^The plain shake,*" Pc2 ||"^or""^Shake with turn," Mc2 ||"^with lower prefix," Pc2 || %3
"^with lower prefix and turn," Mc2 ||[K:treble]"^with upper prefix," Pc2 || %5
"^with upper prefix\nand turn," Mc2 || %6
 c z"^Commencing with the\n main note-when pre-\nceded by a break," PG2 || %7
 Bd"^or by a note one\ndegree above the main note." Pc2 ||[K:treble] e2"^or by a leap," PG2 || %9
 G2"^on a tied note," Pc2- | c2 B2 ||"^on the first note\nof a melody." Pc2 Bc | d2 || %13
"^The Schneller,sometimes\ncalled Upper Mordent." Pc2 G2 || %14
[K:treble] dc/d/"^The Prall-triller, indicated by\nthe same sign as the Schneller;\nthe context must decide which\nis intended:" PB>A || %15
"^The Mordent" Mc2 G2 ||"^Prolonged Mordent," Mc4 || G2"^Tied Mordent" Mc2- | c2 B2 || %19
"^Mordent in an\ninner part." M[CEG]2 ||[K:treble]"^The Turn\nover a note," !turn!c2 || %21
"^between two notes," !turn!c2 d2 ||"^Combined Schneller\nand turn," [EG]P!turn![DF] || %23
{/d} !arpeggio![EGc]2"^Combined acciaccatura\nand arpeggio."{/B} !arpeggio![Gce]2 || %24
"^The Nachschlag.\n(After-beat)" (d2{c)} (B2{A)} G2 || %25
V:2
 d/4c/4d/4c/4"^A"d/4c/4d/4c/4 || d/4c/4d/4c/4"^B"d/4c/4B/4c/4 || B/4c/4d/4"^C"c/4d/4c/4d/4c/4 || %3
 B/4c/4d/4"^D"c/4d/4c/4B/4c/4 ||[K:treble] d/4c/4B/4c/4"^E"d/4c/4d/4c/4 || %5
 d/4c/4B/4"^F"c/4d/4c/4B/4c/4 || c"^G" z G/4A/4G/4A/4G/4A/4G/4A/4 || %7
 Bd"^H" c/4d/4c/4d/4c/4d/4c/4d/4 ||[K:treble] e2"^J" G/4A/4G/4A/4G/4A/4G/4A/4 || %9
 G2"^K" c/4d/4c/4d/4c/4d/4c/- | c2 B2 || c/4d/4c/4d/4"^L"(5:4:5(c/4d/4c/4d/4c/4) Bc | d2 || %13
 c/4d/4"^M"c/-c G2 ||[K:treble] dc/d/"^N" c/4B/4c/4B/4-B/A/ || c/4B/4"^O"c/-c G2 || %16
 c/4B/4c/4"^P"B/4c- c2 || G2"^Q" c/4B/4c/4B/4c- | c2 B2 ||"^R" [CG]2 || %20
[K:treble]"_* The number of repercussions in shakes is not limited to those in the above examples, but may be increased at discretion." d/4c/4B/4"^S"c/4-c || %21
 cd/4"^T"c/4B/4c/4 d2 || GF/8"^U"G/8F/8E/8F/ || (3E/G/-[G-d]/"^V" [Gc] (3G/B/c/- [ce] || %24
 d7/4c/4"^W" B7/4A/4 G2 || %25
V:3
 x2 || Pc2 || x2 || x2 ||[K:treble] x2 || x2 || x4 || x4 ||[K:treble] x4 || x4 | x4 || x4 | x2 || %13
 x4 ||[K:treble] x4 || x4 || x4 || x4 | x4 || x2 ||[K:treble] x2 || x4 || x2 || x4 || x6 || %25
V:4
 x2 || x2 || x2 || x2 ||[K:treble] x2 || x2 || x4 || x4 ||[K:treble] x4 || x4 | x4 || x4 | x2 || %13
 x4 ||[K:treble] x4 || x4 || x4 || x4 | x4 || E/4D/4E/-E ||[K:treble] x2 || x4 || ED || %23
 E- E G- G || x6 || %25
V:5
 x2 || x2 || x2 || x2 ||[K:treble] x2 || x2 || x4 || x4 ||[K:treble] x4 || x4 | x4 || x4 | x2 || %13
 x4 ||[K:treble] x4 || x4 || x4 || x4 | x4 || x2 ||[K:treble] x2 || x4 || x2 || x2 (3x/ B/ x/ x || %24
 x6 || %25

